X:1
T:In the Family of God
T:In the Family of God
T:Robert Edward William Cottrill
T:Robert Edward William Cottrill, 1985
T:© 1985, Robert E. W. Cottrill - Reproduce Freely for Christian Worship Courtesy of the Cyber Hymnal™
C:Robert Edward William Cottrill
Z:© 1985, Robert E. W. Cottrill - Reproduce Freely for Christian Worship
Z:Courtesy of the Cyber Hymnal™
%%score ( 1 2 ) ( 3 4 )
L:1/8
Q:1/4=115
M:3/4
K:F
V:1 treble 
V:2 treble 
V:3 bass 
V:4 bass 
V:1
 C2 | [CF]>[CE] [CF]2 [FA]2 | [Fc]>[Fd] [Fc]2 [EB]2 | [FA]>[CG] [DF]2 [FA]2 | G4 C2 | %5
w: 1.~~We’re|thank- ful for the|fam- i- ly— the|fam- i- ly of|God. Come|
w: 2.~~O|Lord, u- nite us|now as one to|mag- ni- fy Your|Name; To|
 [CF]>[CG] [FA]2 [EB]2 | [Fc]>[Fd] [Fc]2 [FA]2 | [EG][Ec] [Fc]2 [F=B]2 | [Ec]4 [Ac]2 | %9
w: join with us to|wor- ship Him and|sound His praise a-|broad. There’s|
w: praise You for Your|faith- ful- ness, e-|ter- nal- ly the|same: We|
 [Bd]>[Ac] [GB]2 [EG]2 | [Ac]>[GB] [FA]2 F2 | [DB][DA] [DG]2 [DF]2 | (A2 !fermata!G2) C2 | %13
w: free- dom in His|love, to share our|joys and bur- dens,|too. * And|
w: bless the light of|sav- ing grace shed|on us from a-|bove, * By|
 [CF]>[CE] [CF]2 [FA]2 | [Fc]>[Fd] [Fc]2 [CF]2 | [DA]>[DG] [CF]2 [CE]2 | !fermata![CF]4 |] %17
w: there’s a spe- cial|place with- in the|fam- i- ly for|you.|
w: which we are a|fam- i- ly— Your|fam- i- ly of|love.|
V:2
 C2 | x6 | x6 | x6 | (F2 E2) C2 | x6 | x6 | x6 | x6 | x6 | x6 | x6 | C4 x2 | x6 | x6 | x6 | x4 |] %17
V:3
 C,2 | [F,A,]>[G,B,] [F,A,]2 [F,C]2 | [F,A,]>[F,A,] [F,A,]2 [G,C]2 | %3
 [F,C]>[F,A,] [D,A,]2 [G,,=B,]2 | [C,B,]4 [E,B,]2 | [F,A,]>[F,B,] [F,C]2 [C,C]2 | %6
 [F,A,]>[F,A,] [F,A,]2 [F,C]2 | [C,C][C,G,] [G,D]2 [G,D]2 | [C,C]4 [F,C]2 | %9
 [C,C]>[C,C] [C,C]2 [C,C]2 | [D,C]>[E,C] [F,C]2 [F,A,]2 | [G,,G,][A,,F,] [B,,F,]2 [=B,,F,]2 | %12
 (F,2 !fermata!B,2) [E,B,]2 | [F,A,]>[F,B,] [F,A,]2 [F,C]2 | [F,A,]>[F,B,] [F,A,]2 [F,A,]2 | %15
 [B,,B,]>[B,,B,] [G,B,]2 [C,B,]2 | !fermata![F,A,]4 |] %17
V:4
 C,2 | x6 | x6 | x6 | x6 | x6 | x6 | x6 | x6 | x6 | x6 | x6 | C,4 x2 | x6 | x6 | x6 | x4 |] %17

